X: 3
T: Jean's
R: reel
M: 4/4
L: 1/8
K: Gmaj
| (3 DEF |: G3GA BGBd | gB~B2 eBdB | A2AB AGEG | AcBG AGEF |
| G3GA BGBd | gabg abge | ~d2Bd gdBd |1 cAFA G2 (3DEF :|2 cAFA G2Bd ||
|: gBdg ~B2gB | dgBd gBdg | f~d2 adfd | gfga baga |
| (3bag af gfe^d | efgf edBd | ~d2Bd gdBd |1 cAFA G2Bd :|2 cAFA G2GA ||
|: BD~D2 EDB,D | ~D2BD ~D2BD | AD~D2 ADFA | dD^cD cAFA |
| BD~D2 EDB,D | ~D2BD ~D2BD | AD~D2 dD^cD |1 cAFA G2GA :|2 cAFA G2Bd ||
|: gBdg _Bdg=B | dg_Bd g=Bdg | f~d2 adfd | gfga baga |
| (3bag af gfe^d | efgf edBd | ~d2Bd gdBd |1 cAFA G2Bd :|2 cAFA G4 ||


Tune 255	Setting 255

